svg/config-db-white.svg

<?xml version="1.0" encoding="UTF-8"?>
<svg xmlns="http://www.w3.org/2000/svg" xmlns:xlink="http://www.w3.org/1999/xlink" width="32.297001" height="32" viewBox="0 0 32.297001 32">
<path fill-rule="nonzero" fill="rgb(0%, 0%, 0%)" fill-opacity="1" d="M 1.636719 17.953125 C 2.101562 17.953125 2.535156 18.09375 2.894531 18.34375 L 4.859375 9.734375 C 4.71875 9.761719 4.578125 9.773438 4.429688 9.773438 C 3.933594 9.773438 3.445312 9.605469 3.058594 9.292969 C 2.824219 9.109375 2.628906 8.878906 2.492188 8.613281 L 0.246094 18.441406 C 0.507812 18.230469 0.8125 18.082031 1.148438 18.007812 C 1.308594 17.96875 1.472656 17.953125 1.636719 17.953125 M 17.371094 3.46875 L 25.664062 7.460938 C 25.667969 7.417969 25.667969 7.371094 25.675781 7.328125 C 25.777344 6.410156 26.445312 5.652344 27.34375 5.433594 L 18.277344 1.066406 C 18.328125 1.246094 18.351562 1.4375 18.351562 1.636719 C 18.351562 2.375 17.984375 3.058594 17.371094 3.46875 M 29.238281 9.292969 C 28.847656 9.605469 28.363281 9.773438 27.867188 9.773438 C 27.722656 9.777344 27.578125 9.761719 27.4375 9.734375 L 29.402344 18.34375 C 29.757812 18.09375 30.191406 17.953125 30.660156 17.953125 C 30.824219 17.953125 30.988281 17.96875 31.148438 18.007812 C 31.488281 18.082031 31.792969 18.238281 32.046875 18.445312 L 29.804688 8.613281 C 29.664062 8.878906 29.472656 9.109375 29.238281 9.292969 M 6.621094 7.328125 C 6.628906 7.371094 6.628906 7.417969 6.632812 7.460938 L 14.925781 3.46875 C 14.140625 2.945312 13.777344 1.976562 14.019531 1.066406 L 4.953125 5.433594 C 5.855469 5.648438 6.523438 6.40625 6.621094 7.328125 M 30.171875 22.304688 C 29.570312 22.164062 29.054688 21.78125 28.75 21.242188 L 23.21875 28.175781 C 23.816406 28.347656 24.328125 28.765625 24.605469 29.335938 C 24.75 29.636719 24.820312 29.957031 24.824219 30.269531 L 31.179688 22.296875 C 30.847656 22.375 30.503906 22.378906 30.171875 22.304688 M 9.078125 28.175781 L 3.546875 21.242188 C 3.0625 22.101562 2.070312 22.53125 1.113281 22.296875 L 7.472656 30.269531 C 7.476562 29.945312 7.550781 29.628906 7.691406 29.335938 C 7.96875 28.765625 8.480469 28.347656 9.078125 28.175781 M 20.636719 31.253906 C 20.363281 30.683594 20.347656 30.023438 20.59375 29.441406 L 11.703125 29.441406 C 11.949219 30.023438 11.933594 30.683594 11.660156 31.253906 C 11.519531 31.546875 11.3125 31.800781 11.066406 32 L 21.226562 32 C 20.976562 31.796875 20.777344 31.542969 20.636719 31.253906 M 31.023438 18.5625 C 30.90625 18.53125 30.78125 18.519531 30.660156 18.519531 C 30.238281 18.519531 29.84375 18.683594 29.542969 18.960938 C 29.449219 19.050781 29.363281 19.152344 29.292969 19.261719 L 24.8125 18.242188 C 24.738281 17.015625 23.945312 15.949219 22.792969 15.519531 C 22.773438 14.796875 22.199219 14.210938 21.476562 14.175781 C 21.457031 13.945312 21.414062 13.722656 21.351562 13.5 L 27.019531 8.972656 C 27.277344 9.121094 27.570312 9.203125 27.867188 9.207031 C 28.222656 9.207031 28.582031 9.089844 28.886719 8.851562 C 29.429688 8.417969 29.636719 7.6875 29.40625 7.03125 C 29.175781 6.375 28.558594 5.9375 27.863281 5.9375 C 27.507812 5.9375 27.144531 6.054688 26.84375 6.296875 C 26.308594 6.722656 26.097656 7.433594 26.3125 8.082031 C 26.351562 8.195312 20.871094 12.425781 20.871094 12.425781 C 19.980469 11.046875 18.320312 10.371094 16.71875 10.742188 L 16.71875 3.167969 L 16.734375 3.160156 C 17.367188 2.917969 17.785156 2.3125 17.785156 1.636719 C 17.785156 1.277344 17.667969 0.945312 17.472656 0.679688 C 17.167969 0.25 16.675781 0 16.148438 0 C 15.625 0 15.132812 0.25 14.824219 0.675781 C 14.527344 1.085938 14.4375 1.613281 14.582031 2.101562 C 14.726562 2.585938 15.085938 2.976562 15.5625 3.160156 C 15.570312 3.164062 15.574219 3.167969 15.578125 3.167969 L 15.578125 11.203125 C 15.003906 11.550781 14.527344 12.039062 14.195312 12.625 C 13.75 12.339844 13.234375 12.191406 12.707031 12.191406 C 12.28125 12.191406 11.863281 12.289062 11.484375 12.476562 L 5.984375 8.082031 C 6.023438 7.96875 6.046875 7.855469 6.058594 7.738281 C 6.117188 7.1875 5.886719 6.644531 5.453125 6.296875 C 5.113281 6.023438 4.683594 5.898438 4.25 5.945312 C 3.820312 5.996094 3.425781 6.210938 3.15625 6.550781 C 2.59375 7.257812 2.707031 8.285156 3.410156 8.851562 C 3.945312 9.273438 4.691406 9.324219 5.277344 8.972656 L 10.566406 13.195312 C 10.0625 13.804688 9.839844 14.605469 9.964844 15.386719 C 8.589844 15.667969 7.570312 16.839844 7.484375 18.242188 C 7.398438 19.660156 7.484375 18.242188 7.484375 18.242188 L 3.003906 19.261719 C 2.933594 19.152344 2.851562 19.050781 2.753906 18.964844 C 2.359375 18.59375 1.804688 18.441406 1.273438 18.5625 C 0.460938 18.746094 -0.0820312 19.511719 0.0117188 20.339844 C 0.105469 21.167969 0.804688 21.789062 1.636719 21.789062 C 1.753906 21.789062 1.875 21.777344 2 21.75 C 2.664062 21.597656 3.167969 21.046875 3.257812 20.371094 L 7.625 19.378906 C 8.035156 20.667969 9.234375 21.539062 10.585938 21.539062 L 13.277344 21.539062 L 9.832031 28.667969 C 9.714844 28.65625 9.59375 28.660156 9.476562 28.671875 C 8.925781 28.742188 8.445312 29.085938 8.207031 29.585938 C 7.960938 30.089844 7.992188 30.6875 8.292969 31.164062 C 8.589844 31.640625 9.113281 31.929688 9.675781 31.929688 C 10.269531 31.933594 10.816406 31.613281 11.105469 31.09375 C 11.394531 30.578125 11.382812 29.945312 11.070312 29.441406 C 11.011719 29.339844 10.9375 29.246094 10.855469 29.164062 L 14.542969 21.539062 L 17.757812 21.539062 L 21.183594 28.628906 L 21.3125 28.894531 L 21.441406 29.164062 C 20.972656 29.660156 20.855469 30.394531 21.148438 31.007812 C 21.433594 31.589844 22.015625 31.929688 22.625 31.929688 C 22.863281 31.929688 23.105469 31.878906 23.332031 31.765625 C 23.722656 31.578125 24.023438 31.242188 24.167969 30.835938 C 24.308594 30.425781 24.285156 29.976562 24.09375 29.585938 C 23.796875 28.96875 23.148438 28.601562 22.46875 28.667969 L 22.335938 28.398438 L 22.207031 28.132812 L 19.023438 21.539062 L 21.714844 21.539062 C 23.066406 21.539062 24.265625 20.664062 24.675781 19.375 C 25.074219 18.121094 29.039062 20.367188 29.039062 20.367188 C 29.058594 20.5 29.089844 20.628906 29.140625 20.75 C 29.332031 21.238281 29.75 21.625 30.300781 21.746094 C 30.421875 21.777344 30.542969 21.789062 30.664062 21.789062 C 31.5 21.792969 32.207031 21.167969 32.296875 20.335938 C 32.390625 19.503906 31.839844 18.738281 31.023438 18.558594 Z M 3.988281 8.128906 C 3.683594 7.882812 3.632812 7.4375 3.875 7.128906 C 4.121094 6.824219 4.566406 6.773438 4.875 7.015625 C 5.023438 7.132812 5.117188 7.304688 5.140625 7.492188 C 5.160156 7.679688 5.105469 7.871094 4.988281 8.015625 C 4.742188 8.320312 4.296875 8.371094 3.988281 8.128906 M 1.792969 20.847656 C 1.410156 20.933594 1.03125 20.695312 0.941406 20.3125 C 0.851562 19.929688 1.09375 19.546875 1.476562 19.460938 C 1.859375 19.371094 2.242188 19.613281 2.328125 19.996094 C 2.417969 20.378906 2.175781 20.761719 1.792969 20.847656 M 10.316406 30.605469 C 10.144531 30.957031 9.71875 31.105469 9.367188 30.933594 C 9.011719 30.765625 8.863281 30.339844 9.035156 29.984375 C 9.207031 29.632812 9.632812 29.484375 9.984375 29.65625 C 10.339844 29.828125 10.488281 30.25 10.316406 30.605469 M 15.4375 1.636719 C 15.4375 1.242188 15.753906 0.925781 16.148438 0.925781 C 16.542969 0.925781 16.859375 1.242188 16.859375 1.636719 C 16.859375 2.03125 16.542969 2.347656 16.148438 2.347656 C 15.757812 2.347656 15.4375 2.03125 15.4375 1.636719 M 27.421875 7.015625 C 27.730469 6.773438 28.175781 6.824219 28.421875 7.128906 C 28.664062 7.4375 28.613281 7.882812 28.308594 8.128906 C 28 8.371094 27.554688 8.320312 27.308594 8.015625 C 27.191406 7.867188 27.136719 7.679688 27.15625 7.492188 C 27.179688 7.304688 27.273438 7.132812 27.421875 7.015625 M 23.261719 29.984375 C 23.40625 30.332031 23.253906 30.734375 22.914062 30.898438 C 22.574219 31.0625 22.164062 30.933594 21.980469 30.605469 C 21.898438 30.433594 21.886719 30.238281 21.949219 30.0625 C 22.011719 29.882812 22.144531 29.738281 22.3125 29.65625 C 22.664062 29.484375 23.089844 29.632812 23.261719 29.984375 M 31.355469 20.3125 C 31.3125 20.496094 31.199219 20.65625 31.039062 20.757812 C 30.882812 20.855469 30.6875 20.890625 30.503906 20.847656 C 30.136719 20.746094 29.914062 20.375 30 20.003906 C 30.082031 19.632812 30.445312 19.394531 30.820312 19.460938 C 31.203125 19.550781 31.441406 19.929688 31.355469 20.3125 "/>
</svg>

<svg role="img" viewBox="0 0 32.297 32" height="32" width="32.297" xmlns="http://www.w3.org/2000/svg"><path d="M1.637 17.953c.465 0 .898.14 1.258.39l1.964-8.609c-.14.028-.28.04-.43.04-.495 0-.984-.169-1.37-.481a2.07 2.07 0 0 1-.567-.68L.246 18.441c.262-.21.567-.359.902-.433.16-.04.325-.055.489-.055M17.37 3.47l8.293 3.992c.004-.043.004-.09.012-.133a2.202 2.202 0 0 1 1.668-1.894l-9.067-4.368a2.205 2.205 0 0 1-.906 2.403m11.867 5.824c-.39.312-.875.48-1.37.48a1.977 1.977 0 0 1-.43-.039l1.964 8.61c.356-.25.79-.39 1.258-.39.164 0 .328.015.488.054.34.074.645.23.899.437l-2.242-9.832c-.14.266-.332.496-.567.68M6.621 7.328c.008.043.008.09.012.133l8.293-3.992a2.208 2.208 0 0 1-.906-2.403L4.953 5.434c.902.214 1.57.972 1.668 1.894m23.55 14.977a2.207 2.207 0 0 1-1.421-1.063l-5.531 6.934c.597.172 1.11.59 1.386 1.16.145.3.215.621.22.934l6.355-7.973a2.251 2.251 0 0 1-1.008.008m-21.094 5.87-5.531-6.933a2.19 2.19 0 0 1-2.434 1.055l6.36 7.973a2.22 2.22 0 0 1 .218-.934c.278-.57.79-.988 1.387-1.16m11.559 3.078a2.206 2.206 0 0 1-.043-1.813h-8.89a2.21 2.21 0 0 1-.044 1.813c-.14.293-.348.547-.594.746h10.16a2.194 2.194 0 0 1-.59-.746m10.387-12.692a1.422 1.422 0 0 0-.363-.042c-.422 0-.816.164-1.117.44-.094.09-.18.192-.25.302l-4.48-1.02a3.109 3.109 0 0 0-2.02-2.722 1.384 1.384 0 0 0-1.316-1.344 3.613 3.613 0 0 0-.125-.676l5.668-4.527c.257.148.55.23.847.234.356 0 .715-.117 1.02-.355.543-.434.75-1.165.52-1.82a1.628 1.628 0 0 0-2.071-1.02 1.632 1.632 0 0 0-1.023 2.07c.039.113-5.442 4.344-5.442 4.344a3.897 3.897 0 0 0-4.152-1.684V3.168l.015-.008a1.632 1.632 0 0 0 1.051-1.523c0-.36-.117-.692-.312-.957a1.635 1.635 0 1 0-1.91 2.48c.007.004.011.008.015.008v8.035a3.923 3.923 0 0 0-1.383 1.422 2.755 2.755 0 0 0-1.488-.434 2.75 2.75 0 0 0-1.223.286l-5.5-4.395c.215-.648 0-1.36-.53-1.785a1.632 1.632 0 0 0-2.595.82c-.183.637.036 1.32.551 1.735.54.421 1.281.472 1.867.12l5.29 4.223a2.777 2.777 0 0 0-.602 2.192 3.116 3.116 0 0 0-2.48 2.855c-.087 1.418 0 0 0 0l-4.481 1.02a1.638 1.638 0 0 0-2.215-.504 1.64 1.64 0 0 0-.727 1.836A1.638 1.638 0 0 0 2 21.75a1.64 1.64 0 0 0 1.258-1.379l4.367-.992a3.105 3.105 0 0 0 2.96 2.16h2.692l-3.445 7.129c-.68-.063-1.328.3-1.625.918a1.623 1.623 0 0 0 .086 1.578c.297.477.82.766 1.383.766a1.623 1.623 0 0 0 1.43-.836 1.626 1.626 0 0 0-.036-1.653 1.351 1.351 0 0 0-.215-.277l3.688-7.625h3.215l3.426 7.09.128.266.13.27a1.65 1.65 0 0 0-.294 1.843c.286.582.868.922 1.477.922a1.644 1.644 0 0 0 1.543-1.094c.14-.41.117-.86-.074-1.25a1.629 1.629 0 0 0-1.625-.918l-.133-.27-.129-.265-3.184-6.594h2.692c1.351 0 2.55-.875 2.96-2.164.4-1.254 4.364.992 4.364.992.02.133.05.262.102.383.191.488.609.875 1.16.996a1.629 1.629 0 0 0 1.996-1.41 1.633 1.633 0 0 0-1.274-1.777ZM3.988 8.13a.717.717 0 0 1-.113-1 .717.717 0 0 1 1-.113.73.73 0 0 1 .266.476.718.718 0 0 1-.153.524.717.717 0 0 1-1 .113M1.793 20.848a.714.714 0 0 1-.762-1.075.732.732 0 0 1 .446-.312.725.725 0 0 1 .539.09c.156.101.27.262.312.445a.707.707 0 0 1-.09.54.732.732 0 0 1-.445.312m8.523 9.757a.711.711 0 1 1-1.278-.624.711.711 0 0 1 1.278.624m5.121-28.968c0-.395.317-.711.711-.711.395 0 .711.316.711.71a.711.711 0 1 1-1.422 0m11.985 5.38a.717.717 0 0 1 1 .113.717.717 0 0 1-.113 1 .717.717 0 0 1-1-.113.723.723 0 0 1-.153-.524.719.719 0 0 1 .266-.476m-4.16 22.968a.708.708 0 0 1-.344.922.71.71 0 0 1-.938-.3.71.71 0 0 1 .332-.95.711.711 0 0 1 .95.328m8.093-9.672a.71.71 0 1 1-1.388-.316.71.71 0 0 1 1.388.317"/></svg>
